src/hbcore/resources/themes/icons/hbdefault/scalable/qtg_mono_bold.svg

<?xml version="1.0" encoding="UTF-8" standalone="no"?>
<!DOCTYPE svg PUBLIC "-//W3C//DTD SVG 1.1 Tiny//EN" "http://www.w3.org/Graphics/SVG/1.1/DTD/svg11-tiny.dtd">
<svg xmlns="http://www.w3.org/2000/svg" xmlns:xlink="http://www.w3.org/1999/xlink" baseProfile="tiny" height="30" viewBox="0 0 30 30" width="30">
<rect fill="none" height="30" width="30"/>
<path d="M15.08,27c2.705,0,4.755-0.568,6.148-1.706,1.396-1.138,2.093-2.823,2.093-5.055,0-1.696-0.392-3.015-1.175-3.96-0.783-0.944-1.947-1.589-3.493-1.931,2.792-0.967,4.186-2.812,4.186-5.538,0-1.48-0.336-2.664-1.005-3.549-0.672-0.885-1.542-1.484-2.609-1.795-1.07-0.312-2.45-0.468-4.15-0.468h-8.402v24h8.402zm-2.96-13.97v-6.923h1.981c1.319,0,2.199,0.286,2.639,0.861,0.44,0.574,0.66,1.371,0.66,2.391,0,1.179-0.246,2.087-0.74,2.72-0.493,0.633-1.502,0.949-3.026,0.949h-1.513zm0,10.86v-7.838h1.578c0.924,0,1.661,0.105,2.214,0.321,0.552,0.215,0.998,0.598,1.337,1.15,0.337,0.552,0.507,1.372,0.507,2.454,0,1.321-0.264,2.303-0.79,2.947-0.523,0.644-1.594,0.965-3.203,0.965h-1.653z"/>
</svg>

<?xml version="1.0" encoding="UTF-8"?>
<!DOCTYPE svg PUBLIC "-//W3C//DTD SVG 1.1 Tiny//EN" "http://www.w3.org/Graphics/SVG/1.1/DTD/svg11-tiny.dtd">
<svg baseProfile="tiny" height="30" viewBox="0 0 30 30" width="30" xmlns="http://www.w3.org/2000/svg" xmlns:xlink="http://www.w3.org/1999/xlink">
<rect fill="none" height="30" width="30"/>
<path d="M15.08,27c2.705,0,4.755-0.568,6.148-1.706c1.396-1.138,2.093-2.823,2.093-5.055c0-1.696-0.392-3.015-1.175-3.96 c-0.783-0.944-1.947-1.589-3.493-1.931c2.792-0.967,4.186-2.812,4.186-5.538c0-1.48-0.336-2.664-1.005-3.549 c-0.672-0.885-1.542-1.484-2.609-1.795C18.158,3.156,16.776,3,15.08,3H6.678v24H15.08z M12.117,13.028V6.107h1.981 c1.319,0,2.199,0.286,2.639,0.861c0.44,0.574,0.66,1.371,0.66,2.391c0,1.179-0.246,2.087-0.74,2.72 c-0.493,0.633-1.502,0.949-3.026,0.949H12.117z M12.117,23.893v-7.838h1.578c0.924,0,1.661,0.105,2.214,0.321 c0.552,0.215,0.998,0.598,1.337,1.15c0.337,0.552,0.507,1.372,0.507,2.454c0,1.321-0.264,2.303-0.79,2.947 c-0.523,0.644-1.594,0.965-3.203,0.965H12.117z"/>
</svg>
